dist/assets/img/stages/4.svg

<svg width="310" height="428" viewBox="0 0 310 428" fill="none" xmlns="http://www.w3.org/2000/svg">
<path d="M305.452 258.401C306.487 258.401 307.264 260.1 307.782 263.497C308.817 266.408 309.335 269.805 309.335 273.687C309.335 277.569 308.817 281.209 307.782 284.605C307.264 287.517 306.487 288.973 305.452 288.973C288.365 288.002 265.324 287.032 236.328 286.061V404.707C236.328 410.045 234.257 413.442 230.115 414.898L205.262 426.544C202.155 427.515 200.602 428 200.602 428C199.048 428 198.272 426.059 198.272 422.177V285.333C165.652 284.363 101.965 283.878 7.2119 283.878C4.62301 283.878 2.5519 282.907 0.998571 280.966C-0.554762 279.025 -0.295873 277.084 1.77524 275.143L224.678 1.45579C225.714 0.485269 227.267 0 229.338 0C230.892 0 232.445 0.485269 233.998 1.45579C235.552 1.94106 236.328 2.91156 236.328 4.36734V259.857C249.273 259.857 272.314 259.372 305.452 258.401ZM42.9385 262.769C89.5385 262.769 141.316 262.283 198.272 261.313V62.5987L39.0552 257.673C37.5019 259.129 36.9841 260.342 37.5019 261.313C38.5374 262.283 40.3497 262.769 42.9385 262.769Z" fill="#FF3D00" fill-opacity="0.2"/>
</svg>

<svg width="310" height="428" viewBox="0 0 310 428" fill="none" xmlns="http://www.w3.org/2000/svg"><path d="M305.452 258.401c1.035 0 1.812 1.699 2.33 5.096 1.035 2.911 1.553 6.308 1.553 10.19 0 3.882-.518 7.522-1.553 10.918-.518 2.912-1.295 4.368-2.33 4.368-17.087-.971-40.128-1.941-69.124-2.912v118.646c0 5.338-2.071 8.735-6.213 10.191l-24.853 11.646-4.66 1.456c-1.554 0-2.33-1.941-2.33-5.823V285.333c-32.62-.97-96.307-1.455-191.06-1.455-2.589 0-4.66-.971-6.213-2.912-1.554-1.941-1.295-3.882.776-5.823L224.678 1.456C225.714.486 227.267 0 229.338 0c1.554 0 3.107.485 4.66 1.456 1.554.485 2.33 1.456 2.33 2.911v255.49c12.945 0 35.986-.485 69.124-1.456zm-262.514 4.368c46.6 0 98.378-.486 155.334-1.456V62.599L39.055 257.673c-1.553 1.456-2.07 2.669-1.553 3.64 1.035.97 2.848 1.456 5.436 1.456z" fill="#FF3D00" fill-opacity=".2"/></svg>
